X:82
T:Hum the Hummer
M:6/8
L:1/8
B:Thompson's Compleat Collection of 200 Favourite Country Dances, vol. 2 (London, 1765)
Z:Transcribed and edited by Flynn Titford-Mock, 2007
Z:abc's:AK/Fiddler's Companion
K:D
A | dAF BGE | AFD d2e | fdB ecA | (d3 d2) F/G/ | AFD BGE | cAF g2f | ecA ^GEG | (A3 A2) :|
|: c | ecA dfd | BdB GGf | gec fF^A | (B3 B2) c | dBF GEd | eBe cBA | dAF BGA | (D3 D2) :|

